svgs/stay_put.svg

<svg width="192" height="192" viewBox="0 0 192 192" fill="none" xmlns="http://www.w3.org/2000/svg">
<path d="M147.225 103.145C147.225 103.145 161.214 123.248 157.039 138.538C152.092 156.651 142.328 170 117.488 170C100.998 170 86 163.914 75.96 146.524C65.92 129.134 27 118.455 27 104.165C27 99.599 31.4136 96.4289 36.2106 96.4289C59.64 96.4289 73.784 116.414 79.224 116.414C79.224 116.414 87.1469 110.171 64.3914 64.267C59.1541 53.702 56.9208 33.7379 66.1688 33.7379C84.6648 33.7379 100.984 93.9586 100.984 93.9586C100.984 93.9586 90.104 22 106.968 22C123.832 22 121.656 72.0138 128.056 93.9586C128.056 93.9586 138.52 76.6069 142.328 56.1931C144.204 46.139 144.589 37.8207 152.163 37.8207C159.737 37.8207 163 53.2153 163 62.3172C163 83.8921 152.163 104.165 152.163 104.165" stroke="black" stroke-width="12" stroke-linecap="round" stroke-linejoin="round"/>
<path d="M107.5 117C107.5 117 110.86 122.313 110.997 127.5C111.184 134.576 103.5 143.5 103.5 143.5" stroke="black" stroke-width="10" stroke-linecap="round" stroke-linejoin="round"/>
</svg>

<svg xmlns="http://www.w3.org/2000/svg" width="192" height="192" fill="none" viewBox="0 0 192 192"><path stroke="#000" stroke-linecap="round" stroke-linejoin="round" stroke-width="12" d="M147.225 103.145s13.989 20.103 9.814 35.393C152.092 156.651 142.328 170 117.488 170c-16.49 0-31.488-6.086-41.528-23.476S27 118.455 27 104.165c0-4.566 4.414-7.736 9.21-7.736 23.43 0 37.574 19.985 43.014 19.985 0 0 7.923-6.243-14.833-52.147-5.237-10.565-7.47-30.53 1.778-30.53 18.496 0 34.815 60.222 34.815 60.222S90.104 22 106.968 22s14.688 50.014 21.088 71.959c0 0 10.464-17.352 14.272-37.766 1.876-10.054 2.261-18.372 9.835-18.372S163 53.215 163 62.317c0 21.575-10.837 41.848-10.837 41.848"/><path stroke="#000" stroke-linecap="round" stroke-linejoin="round" stroke-width="10" d="M107.5 117s3.36 5.313 3.497 10.5c.187 7.076-7.497 16-7.497 16"/></svg>
